X:396
T:Albaniña
T:L'Adúltera
R:Romance
C:Tradicional
S:Música Tradicional Asturiana, (C) Tello & Tito. Asturies, 2001.
S:http://pagina.de/MusTradAst <telloytito@asturies.org>
N:Versión 1
O:Teberga
A:Asturies
Z:DyC en Teberga
M:2/4
L:1/8
Q:1/4=72
K:D
A/A/|: AA dc|B2{cB} A2|D D/D/ EF|E3 E/F/|GG AA|
[M:3/4] F D/E/ F2 F/A/G/F/|E C/D/ E2 F/G/F/E/|
[M:2/4] A3 A/B/|AE GF|D4-|[1 D2 z A/A/ :|[2 D2 z2||


